source/manual/Azure Time Series Insights_COLOR.svg

<svg viewBox="0 0 64 64" class="" role="presentation" focusable="false" xmlns:svg="http://www.w3.org/2000/svg" xmlns:xlink="http://www.w3.org/1999/xlink" id="FxSymbol0-091"><g><title></title><g fill="#00b294"><path d="M63 24.3C59.5 10 46.7 0 32 0 17.1 0 4 10.6.8 25.1l-.3 1.3h6.4l.2-.8C10 14.2 20.3 6.2 32 6.2c11.3 0 21.5 7.7 24.7 18.6l.2.7h6.4l-.3-1.2zM56.4 40l-.2.7C52.5 50.9 42.8 57.8 32 57.8c-10.6 0-20-6.4-23.9-16.3l-.3-.7H1.3l.5 1.4C6.1 55.2 18.3 64 32 64c14.1 0 26.4-9.1 30.6-22.7L63 40h-6.6z"></path><path d="M35.1 49l-7-20.2-4 7.4H3.3C1.9 36.2.7 35 .7 33.6c0-1.4 1.2-2.6 2.6-2.6H21l8.2-15 7.3 21.2 4.5-7h19.9c1.4 0 2.6 1.2 2.6 2.6 0 1.4-1.2 2.6-2.6 2.6H43.8L35.1 49z"></path></g></g></svg>

<?xml version="1.0" encoding="UTF-8" standalone="no"?>
<svg
   xmlns:dc="http://purl.org/dc/elements/1.1/"
   xmlns:cc="http://creativecommons.org/ns#"
   xmlns:rdf="http://www.w3.org/1999/02/22-rdf-syntax-ns#"
   xmlns:svg="http://www.w3.org/2000/svg"
   xmlns="http://www.w3.org/2000/svg"
   xmlns:sodipodi="http://sodipodi.sourceforge.net/DTD/sodipodi-0.dtd"
   xmlns:inkscape="http://www.inkscape.org/namespaces/inkscape"
   viewBox="0 0 63 64"
   class=""
   role="presentation"
   focusable="false"
   id="FxSymbol0-091"
   version="1.1"
   sodipodi:docname="Azure Time Series Insights_COLOR.svg"
   width="63"
   height="64"
   inkscape:version="0.92.2 (5c3e80d, 2017-08-06)">
  <metadata
     id="metadata17">
    <rdf:RDF>
      <cc:Work
         rdf:about="">
        <dc:format>image/svg+xml</dc:format>
        <dc:type
           rdf:resource="http://purl.org/dc/dcmitype/StillImage" />
      </cc:Work>
    </rdf:RDF>
  </metadata>
  <defs
     id="defs15" />
  <sodipodi:namedview
     pagecolor="#ffffff"
     bordercolor="#666666"
     borderopacity="1"
     objecttolerance="10"
     gridtolerance="10"
     guidetolerance="10"
     inkscape:pageopacity="0"
     inkscape:pageshadow="2"
     inkscape:window-width="640"
     inkscape:window-height="480"
     id="namedview13"
     showgrid="false"
     inkscape:zoom="3.6875"
     inkscape:cx="31.5"
     inkscape:cy="32"
     inkscape:window-x="0"
     inkscape:window-y="0"
     inkscape:window-maximized="0"
     inkscape:current-layer="FxSymbol0-091" />
  <g
     id="g10"
     transform="translate(-0.5)">
    <title
       id="title2" />
    <g
       id="g8"
       style="fill:#00b294">
      <path
         d="M 63,24.3 C 59.5,10 46.7,0 32,0 17.1,0 4,10.6 0.8,25.1 L 0.5,26.4 H 6.9 L 7.1,25.6 C 10,14.2 20.3,6.2 32,6.2 c 11.3,0 21.5,7.7 24.7,18.6 l 0.2,0.7 h 6.4 z M 56.4,40 56.2,40.7 C 52.5,50.9 42.8,57.8 32,57.8 21.4,57.8 12,51.4 8.1,41.5 L 7.8,40.8 H 1.3 l 0.5,1.4 C 6.1,55.2 18.3,64 32,64 46.1,64 58.4,54.9 62.6,41.3 L 63,40 Z"
         id="path4"
         inkscape:connector-curvature="0" />
      <path
         d="m 35.1,49 -7,-20.2 -4,7.4 H 3.3 C 1.9,36.2 0.7,35 0.7,33.6 0.7,32.2 1.9,31 3.3,31 H 21 l 8.2,-15 7.3,21.2 4.5,-7 h 19.9 c 1.4,0 2.6,1.2 2.6,2.6 0,1.4 -1.2,2.6 -2.6,2.6 H 43.8 Z"
         id="path6"
         inkscape:connector-curvature="0" />
    </g>
  </g>
</svg>
